!!! OTL: Berkowitz115
!!! Chapter: 1
!!! Section: I
!!! Page: 28
!!! Mode: 
!!! Encoder: DJB
**kern
*staff1
*I"Piano
*clefF4
*k[b-e-a-]
*E-:
*M3/4
4BB-/
=1
4.E-\
8F\
8G\L
8A-\J
=2
4B-\
4B-\
4B-\
=3
4c\
4A-\
4c\
=4
4B-\
4G\
4r
=5
4.E-\
8F\
8G\L
8A-\J
=6
4B-\
4B-\
4B-\
=7
4B-\
4A-\
4G\
=8
4F\
4r
4E-\
=9
4.c\
8B-\
8A-\L
8c\J
=10
!!linebreak:original
4B-\
4G\
4E-\
=11
4.A-\
8G\
8F\L
8A-\J
=12
4G\
4E-\
4BB-/
=13
8C/L
8D/J
8E-\L
8F\J
8G\L
8A-\J
=14
4B-\
4B-\
4c\
=15
4.B-\
8A-\
8G\L
8F\J
=16
4E-\
4r
4r
==
*-
